X: 33
T:Dennis Crowther's No 1
M:4/4
L:1/8
Q:1/8=300
K:G
B6 c2|d6 e2|d2 g2 f2 e2|d4 B4|A6 B2|
c6 d2|f2 e2 d2 c2|B2 g2 f2 e2|
B6 c2|d6 e2|d2 g2 f2 e2|d4 B4|A6 B2|
c6 d2|f2 e2 c2 A2|G8|
|b2 d2 b2 d2|b6 Bc|d2 e2 d2 g2|f4 e4|
b2 d2 b2 d2|b6 Bc|d2 e2 d2 g2|f4 e4|
a2 e2 f2|g8||
